X: 9
M: 6/8
L: 1/8
K: F
|: "F"CFF "F7"AFF | "Bb"DFF "Gm"B2d | "F"cAc "A/F"fcA | "Gm"BGG "C7"cBG |
   "F"CFF "F7"AFF | "Bb"DFF "Gm"B2d | "C7"cdc CDE |1 "F"AFF F2"C7"F :|2 "F"AFF F2"C7"A ||
|: "F"cAA "F7"f2c | "Bb"dBB "Gm"f2d | "F"cAc "A/F"fcA | "Gm"BGG "C7"G2c |
[1 "F"cAA "F7"f2c | "Bb"dBB "Gm"f2d | "C7"cdc CDE | "F"AFF F2"C7"c :|
[2 "F"CFF "F7"AFF | "Bb"DFF "Gm"B2d | "C7"cdc CDE | "F"AFF F3 |]
dance and tune were published by the RSCDS Leicester Branch in their Crystal Collection of 1992 and


